packages/kaspersky-hexa-ui-icons/src/iconsSVGs/16x12/FlagKz.svg

<svg width="16" height="12" viewBox="0 0 16 12" fill="none" xmlns="http://www.w3.org/2000/svg">
<g clip-path="url(#clip0_41816_2964)">
<rect width="16" height="12" rx="2" fill="white"/>
<mask id="mask0_41816_2964" style="mask-type:luminance" maskUnits="userSpaceOnUse" x="0" y="0" width="16" height="12">
<rect width="16" height="12" rx="2" fill="white"/>
</mask>
<g mask="url(#mask0_41816_2964)">
<rect width="16" height="12" fill="#30C6E0"/>
<path d="M9.16895 3.5708L10.6133 2.72119L10.1064 4.31885L11.7754 4.18018L10.626 5.3999L12.1904 6.00049L10.626 6.6001L11.7754 7.81982L10.1064 7.68115L10.6133 9.27979L9.16895 8.4292L8.93262 10.0894L8 8.69678L7.06738 10.0894L6.83203 8.4292L5.3877 9.27979L5.89453 7.68115L4.22461 7.81982L5.37402 6.6001L3.80957 6.00049L5.37402 5.3999L4.22461 4.18018L5.89453 4.31885L5.3877 2.72119L6.83203 3.5708L7.06738 1.91064L8 3.3042L8.93262 1.91064L9.16895 3.5708ZM8 3.33154C6.52737 3.3317 5.33398 4.52638 5.33398 6.00049C5.33403 7.47456 6.5274 8.66928 8 8.66943C9.47256 8.66924 10.6669 7.47453 10.667 6.00049C10.667 4.52641 9.47259 3.33174 8 3.33154ZM8 3.7124C9.26234 3.71243 10.2861 4.7369 10.2861 6.00049C10.2861 7.26404 9.26232 8.28855 8 8.28857C6.73766 8.28857 5.71391 7.26406 5.71387 6.00049C5.71387 4.73689 6.73763 3.7124 8 3.7124Z" fill="#FFCD4B"/>
<path d="M1.32361 10.3997C1.43404 10.3997 1.52377 10.4895 1.5238 10.5999V11.0003C1.52363 11.1106 1.43396 11.1995 1.32361 11.1995H0.96228C0.851932 11.1995 0.76226 11.1106 0.762085 11.0003V10.5999C0.762121 10.4895 0.851845 10.3997 0.96228 10.3997H1.32361ZM2.08533 9.59993C2.19578 9.59993 2.28552 9.68967 2.28552 9.80013V10.1995C2.28552 10.31 2.19578 10.3997 2.08533 10.3997H1.724C1.61354 10.3997 1.5238 10.31 1.5238 10.1995V9.80013C1.5238 9.68967 1.61354 9.59993 1.724 9.59993H2.08533ZM1.32361 8.80013C1.43407 8.80013 1.5238 8.88986 1.5238 9.00032V9.39973C1.5238 9.51019 1.43407 9.59993 1.32361 9.59993H0.96228C0.851823 9.59993 0.762085 9.51019 0.762085 9.39973V9.00032C0.762085 8.88986 0.851823 8.80013 0.96228 8.80013H1.32361ZM2.08533 8.00032C2.19563 8.00032 2.28528 8.08929 2.28552 8.19954V8.59993C2.28552 8.71039 2.19578 8.80013 2.08533 8.80013H1.724C1.61354 8.80013 1.5238 8.71039 1.5238 8.59993V8.19954C1.52405 8.08929 1.61369 8.00032 1.724 8.00032H2.08533ZM1.32361 7.19954C1.43398 7.19954 1.52366 7.2894 1.5238 7.39973V7.80013C1.52373 7.91052 1.43402 8.00032 1.32361 8.00032H0.96228C0.851867 8.00032 0.762155 7.91052 0.762085 7.80013V7.39973C0.762226 7.2894 0.85191 7.19954 0.96228 7.19954H1.32361ZM2.08533 6.39973C2.19576 6.39973 2.28549 6.4895 2.28552 6.59993V7.00032C2.28535 7.11063 2.19568 7.19954 2.08533 7.19954H1.724C1.61365 7.19954 1.52398 7.11063 1.5238 7.00032V6.59993C1.52384 6.4895 1.61356 6.39973 1.724 6.39973H2.08533ZM1.32361 5.59993C1.43407 5.59993 1.5238 5.68967 1.5238 5.80013V6.19954C1.5238 6.31 1.43407 6.39973 1.32361 6.39973H0.96228C0.851823 6.39973 0.762085 6.31 0.762085 6.19954V5.80013C0.762085 5.68967 0.851823 5.59993 0.96228 5.59993H1.32361ZM2.08533 4.80013C2.19578 4.80013 2.28552 4.88986 2.28552 5.00032V5.39973C2.28552 5.51019 2.19578 5.59993 2.08533 5.59993H1.724C1.61354 5.59993 1.5238 5.51019 1.5238 5.39973V5.00032C1.5238 4.88986 1.61354 4.80013 1.724 4.80013H2.08533ZM1.32361 4.00032C1.43391 4.00032 1.52356 4.08929 1.5238 4.19954V4.59993C1.5238 4.71039 1.43407 4.80013 1.32361 4.80013H0.96228C0.851823 4.80013 0.762085 4.71039 0.762085 4.59993V4.19954C0.762331 4.08929 0.851975 4.00032 0.96228 4.00032H1.32361ZM2.08533 3.19954C2.1957 3.19954 2.28538 3.2894 2.28552 3.39973V3.80013C2.28545 3.91052 2.19574 4.00032 2.08533 4.00032H1.724C1.61359 4.00032 1.52387 3.91052 1.5238 3.80013V3.39973C1.52394 3.2894 1.61363 3.19954 1.724 3.19954H2.08533ZM1.32361 2.39973C1.43404 2.39973 1.52377 2.4895 1.5238 2.59993V3.00032C1.52363 3.11063 1.43396 3.19954 1.32361 3.19954H0.96228C0.851932 3.19954 0.762261 3.11063 0.762085 3.00032V2.59993C0.76212 2.4895 0.851845 2.39973 0.96228 2.39973H1.32361ZM2.08533 1.59993C2.19578 1.59993 2.28552 1.68967 2.28552 1.80013V2.19954C2.28552 2.31 2.19578 2.39973 2.08533 2.39973H1.724C1.61354 2.39973 1.5238 2.31 1.5238 2.19954V1.80013C1.5238 1.68967 1.61354 1.59993 1.724 1.59993H2.08533ZM1.32361 0.800125C1.43407 0.800125 1.5238 0.889863 1.5238 1.00032V1.39973C1.5238 1.51019 1.43407 1.59993 1.32361 1.59993H0.96228C0.851823 1.59993 0.762085 1.51019 0.762085 1.39973V1.00032C0.762085 0.889863 0.851823 0.800125 0.96228 0.800125H1.32361Z" fill="#FFCD4B"/>
</g>
</g>
<defs>
<clipPath id="clip0_41816_2964">
<rect width="16" height="12" fill="white"/>
</clipPath>
</defs>
</svg>

<svg xmlns="http://www.w3.org/2000/svg" width="16" height="12" fill="none" viewBox="0 0 16 12"><g clip-path="url(#a)"><rect width="16" height="12" fill="#fff" rx="2"/><mask id="b" width="16" height="12" x="0" y="0" maskUnits="userSpaceOnUse" style="mask-type:luminance"><rect width="16" height="12" fill="#fff" rx="2"/></mask><g mask="url(#b)"><path fill="#30c6e0" d="M0 0h16v12H0z"/><path fill="#ffcd4b" d="m9.169 3.571 1.444-.85-.507 1.598 1.669-.139-1.149 1.22 1.564.601-1.564.599 1.149 1.22-1.669-.139.507 1.599-1.444-.851-.236 1.66L8 8.697l-.933 1.393-.235-1.66-1.444.851.507-1.599-1.67.139L5.374 6.6 3.81 6l1.564-.601-1.149-1.22 1.67.139-.507-1.598 1.444.85.235-1.66L8 3.304l.933-1.394zM8 3.332c-1.473 0-2.666 1.195-2.666 2.669S6.527 8.669 8 8.67c1.473 0 2.667-1.195 2.667-2.669S9.473 3.332 8 3.332m0 .381c1.262 0 2.286 1.025 2.286 2.288 0 1.264-1.024 2.288-2.286 2.288S5.714 7.264 5.714 6.001 6.738 3.712 8 3.712M1.324 10.4a.2.2 0 0 1 .2.2v.4a.2.2 0 0 1-.2.199H.962a.2.2 0 0 1-.2-.199v-.4a.2.2 0 0 1 .2-.2zm.762-.8a.2.2 0 0 1 .2.2v.399a.2.2 0 0 1-.2.2h-.362a.2.2 0 0 1-.2-.2V9.8a.2.2 0 0 1 .2-.2zm-.762-.8a.2.2 0 0 1 .2.2v.399a.2.2 0 0 1-.2.2H.962a.2.2 0 0 1-.2-.2V9a.2.2 0 0 1 .2-.2zm.762-.8c.11 0 .2.089.2.199V8.6a.2.2 0 0 1-.2.2h-.362a.2.2 0 0 1-.2-.2v-.4a.2.2 0 0 1 .2-.199zm-.762-.801c.11 0 .2.09.2.2v.4a.2.2 0 0 1-.2.2H.962a.2.2 0 0 1-.2-.2v-.4a.201.201 0 0 1 .2-.2zm.762-.8a.2.2 0 0 1 .2.2v.4a.2.2 0 0 1-.2.199h-.362c-.11 0-.2-.089-.2-.199V6.6a.2.2 0 0 1 .2-.2zM1.324 5.6a.2.2 0 0 1 .2.2v.399a.2.2 0 0 1-.2.2H.962a.2.2 0 0 1-.2-.2V5.8a.2.2 0 0 1 .2-.2zm.762-.8a.2.2 0 0 1 .2.2v.399a.2.2 0 0 1-.2.2h-.362a.2.2 0 0 1-.2-.2V5a.2.2 0 0 1 .2-.2zM1.324 4c.11 0 .2.089.2.199V4.6a.2.2 0 0 1-.2.2H.962a.2.2 0 0 1-.2-.2v-.4a.2.2 0 0 1 .2-.199zm.762-.801c.11 0 .2.09.2.2v.4a.2.2 0 0 1-.2.2h-.362a.201.201 0 0 1-.2-.2v-.4a.201.201 0 0 1 .2-.2zm-.762-.8a.2.2 0 0 1 .2.2v.4a.2.2 0 0 1-.2.199H.962c-.11 0-.2-.089-.2-.199V2.6a.2.2 0 0 1 .2-.2zm.761-.799a.2.2 0 0 1 .2.2v.399a.2.2 0 0 1-.2.2h-.361a.2.2 0 0 1-.2-.2V1.8a.2.2 0 0 1 .2-.2zM1.324.8a.2.2 0 0 1 .2.2v.399a.2.2 0 0 1-.2.2H.962a.2.2 0 0 1-.2-.2V1a.2.2 0 0 1 .2-.2z"/></g></g><defs><clipPath id="a"><path fill="#fff" d="M0 0h16v12H0z"/></clipPath></defs></svg>
